src/status/24/clipman.svg

<svg viewBox="0 0 24 24" xmlns="http://www.w3.org/2000/svg">
 <path d="m9 2v3h6v-3zm-3 2c-0.554 0-1 0.446-1 1v15c0 0.554 0.446 1 1 1h12c0.554 0 1-0.446 1-1v-15c0-0.554-1-1-1-1h-1v15h-10v-15zm2 3v1h5v-1zm0 3v1h7v-1zm0 3v1h3v-1zm0 3v1h8v-1z" fill="#2e3440"/>
</svg>

<svg xmlns="http://www.w3.org/2000/svg" viewBox="0 0 24 24">
 <path style="fill:#2e3440;opacity:1;fill-opacity:1;stroke:none;fill-rule:nonzero" d="m 9,2 0,3 6,0 0,-3 z M 6,4 C 5.446,4 5,4.446 5,5 l 0,15 c 0,0.554 0.446,1 1,1 l 12,0 c 0.554,0 1,-0.446 1,-1 L 19,5 C 19,4.446 18,4 18,4 L 17,4 17,19 7,19 7,4 Z m 2,3 0,1 5,0 0,-1 z m 0,3 0,1 7,0 0,-1 z m 0,3 0,1 3,0 0,-1 z m 0,3 0,1 8,0 0,-1 z"/>
</svg>
